img/main-page/cards/05.svg

<svg width="70" height="70" viewBox="0 0 70 70" fill="none" xmlns="http://www.w3.org/2000/svg">
<path d="M33.0364 6.73682C31.0052 6.73682 29.2677 7.75733 28.0598 9.21826C27.6021 9.0947 27.1476 8.95679 26.6294 8.95679C23.6944 8.95679 21.3551 11.1522 20.8667 13.9641C20.0783 13.5659 19.2274 13.2771 18.281 13.2771C14.9963 13.2771 12.3184 15.9758 12.3184 19.2739C12.3184 19.5361 12.3872 19.7535 12.4226 19.9951C9.91606 20.702 8.03223 22.918 8.03223 25.6553C8.03223 28.7515 10.4179 31.2339 13.4241 31.5376C12.8398 32.4689 12.4537 33.5024 12.3679 34.6633C9.8417 35.3589 7.94336 37.5998 7.94336 40.3525C7.94336 43.6513 10.621 46.3511 13.9077 46.3511C14.1771 46.3511 14.4032 46.2765 14.6528 46.2383C15.3714 48.7281 17.5594 50.603 20.2668 50.603C22.1601 50.603 23.7519 49.6139 24.8401 48.2275C25.383 48.3578 25.9294 48.4941 26.5405 48.4941C27.9937 48.4941 29.3377 48.0601 30.5139 47.3799C30.811 47.4853 31.114 47.5812 31.4231 47.6585C31.4168 50.395 31.0917 52.3083 30.6182 53.5579C30.1021 54.9197 29.4658 55.5425 28.8579 55.8975C28.0969 56.3419 27.0094 56.4158 25.011 57.5039C23.0194 58.5881 21.6252 59.8991 20.7505 60.8501C20.6721 60.9346 20.6112 61.0338 20.5713 61.1419C20.5313 61.25 20.5131 61.3649 20.5177 61.4801C20.5223 61.5952 20.5496 61.7083 20.598 61.8129C20.6465 61.9175 20.7151 62.0115 20.7999 62.0895C20.8848 62.1675 20.9842 62.2279 21.0925 62.2674C21.2008 62.3068 21.3158 62.3245 21.4309 62.3194C21.5461 62.3143 21.6591 62.2865 21.7634 62.2376C21.8678 62.1887 21.9615 62.1196 22.0391 62.0344C22.8286 61.176 24.0758 60.0053 25.8484 59.0403C27.6265 58.0721 28.5442 58.1082 29.7397 57.4099C30.6946 56.8523 31.6244 55.8389 32.2537 54.1782C32.8247 52.6712 33.1585 50.5886 33.1714 47.7576C34.1559 47.638 35.0521 47.2636 35.8477 46.7493C36.4086 47.2732 37.0641 47.6988 37.8044 47.9336C37.5025 50.4207 37.5648 52.288 37.9019 53.6792C38.2764 55.2252 39 56.233 39.7886 56.8306C41.1799 57.8851 42.436 57.7839 44.2183 59.1873C45.3602 60.0871 46.0953 61.08 46.5305 61.7661C46.5921 61.8632 46.6722 61.9472 46.7663 62.0133C46.8604 62.0794 46.9665 62.1263 47.0787 62.1514C47.1909 62.1764 47.307 62.1792 47.4202 62.1594C47.5335 62.1396 47.6417 62.0977 47.7388 62.0361C47.8358 61.9745 47.9198 61.8944 47.9859 61.8004C48.052 61.7063 48.0989 61.6001 48.124 61.4879C48.1491 61.3757 48.1518 61.2597 48.132 61.1465C48.1123 61.0332 48.0704 60.9249 48.0088 60.8279C47.5062 60.0355 46.6494 58.8732 45.3018 57.8115C43.199 56.1559 41.6741 56.0633 40.8464 55.436C40.3771 55.0806 39.9009 54.5002 39.6023 53.2673C39.332 52.1514 39.2562 50.466 39.5459 48.0977C40.8975 47.9354 42.0131 47.1362 42.7947 46.0845C43.5046 46.3098 44.2265 46.5237 45.0112 46.5237C46.395 46.5237 47.6665 46.1011 48.7761 45.447C48.8093 45.4522 48.8562 45.4536 48.8975 45.459C49.926 47.2547 51.8076 48.5027 54.0125 48.5027C57.2971 48.5027 59.9751 45.8023 59.9751 42.5042C59.9751 40.6539 59.0542 39.075 57.738 37.9736C57.7464 37.9014 57.7522 37.8312 57.7585 37.76C60.2209 37.0195 62.0549 34.8056 62.0549 32.0999C62.0549 29.2548 60.0301 26.9531 57.374 26.3491C56.8445 24.1266 55.127 22.4373 52.8999 21.9485C53.3087 21.1453 53.6074 20.2778 53.6074 19.3098C53.6074 16.0111 50.93 13.3113 47.6448 13.3113C46.4574 13.3113 45.4134 13.7523 44.4866 14.3555C43.5007 12.4225 41.5733 11.052 39.2656 11.052C39.1992 11.052 39.1663 11.064 39.105 11.0674C38.1676 8.56674 35.8483 6.73682 33.0364 6.73682ZM33.0364 8.48682C35.3118 8.48682 37.1962 10.0722 37.7139 12.2039C37.7648 12.4139 37.8916 12.5976 38.0698 12.7197C38.2481 12.8418 38.4652 12.8937 38.6794 12.8652C38.9341 12.8315 39.125 12.802 39.2656 12.802C41.1842 12.802 42.7731 14.0948 43.2886 15.8662C43.3308 16.0108 43.4096 16.142 43.5174 16.2472C43.6252 16.3524 43.7583 16.428 43.9039 16.4666C44.0495 16.5053 44.2025 16.5058 44.3483 16.4679C44.4941 16.4301 44.6277 16.3553 44.7361 16.2507C45.4971 15.5145 46.5102 15.0613 47.6448 15.0613C49.977 15.0613 51.8574 16.9508 51.8574 19.3098C51.8574 20.3562 51.4705 21.294 50.8372 22.0442C50.7273 22.1742 50.6578 22.3333 50.6371 22.5022C50.6163 22.6711 50.6452 22.8424 50.7203 22.9951C50.7954 23.1478 50.9134 23.2752 51.0598 23.3619C51.2062 23.4486 51.3747 23.4908 51.5447 23.4832C51.7283 23.4749 51.7701 23.4661 51.6711 23.4661C53.8116 23.4661 55.5455 25.0677 55.8223 27.1523C55.8479 27.3449 55.9368 27.5236 56.0751 27.66C56.2135 27.7965 56.3932 27.883 56.5862 27.906C58.6813 28.1572 60.3049 29.9144 60.3049 32.0999C60.3049 34.2117 58.7846 35.9339 56.7964 36.2766C56.634 36.3048 56.4828 36.3784 56.3604 36.4887C56.2379 36.5991 56.1492 36.7418 56.1042 36.9004L55.6326 36.398L55.3301 36.3433L54.6294 36.6953L54.491 37.4678L55.0259 38.0403L55.3301 38.0933L56.0051 37.7549C55.9928 37.8588 55.9925 37.9829 55.9744 38.0779C55.9421 38.2463 55.9601 38.4205 56.026 38.5788C56.092 38.7371 56.203 38.8725 56.3452 38.9683C57.4771 39.7308 58.2251 41.0218 58.2251 42.5042C58.2251 44.862 56.3435 46.7527 54.0125 46.7527C52.2994 46.7527 50.8377 45.7189 50.1775 44.2388C50.1079 44.0822 49.9939 43.9495 49.8496 43.8572C49.7053 43.7648 49.537 43.7169 49.3657 43.7192C49.1442 43.7225 49.0945 43.738 49.2 43.738C49.1359 43.738 48.9815 43.7051 48.7043 43.6834C48.511 43.668 48.318 43.7173 48.1558 43.8235C47.2448 44.4221 46.1743 44.7737 45.0112 44.7737C44.2433 44.7737 43.5153 44.6205 42.8425 44.3447C42.6423 44.2623 42.4186 44.257 42.2146 44.3299C42.0107 44.4028 41.8411 44.5488 41.7385 44.7395C41.2124 45.7196 40.2161 46.3818 39.0417 46.3818C39.0197 46.3818 38.9987 46.3789 38.9768 46.3784C38.9169 46.3634 38.8556 46.3549 38.7939 46.3528C38.7534 46.3517 38.7129 46.3534 38.6726 46.3579C37.8392 46.256 37.1179 45.8149 36.6201 45.1702C36.5486 45.0777 36.4592 45.0006 36.3574 44.9433C36.2556 44.8859 36.1432 44.8496 36.0271 44.8364C35.911 44.8231 35.7934 44.8333 35.6813 44.8663C35.5691 44.8993 35.4648 44.9543 35.3743 45.0283C34.5879 45.6721 33.6209 46.0623 32.5493 46.0623C32.5302 46.0623 32.5119 46.0591 32.4929 46.0588C32.4223 46.0431 32.3499 46.0362 32.2776 46.0383C32.2542 46.0391 32.2308 46.0408 32.2075 46.0435C31.694 46.0032 31.2059 45.8789 30.7498 45.6777C30.6171 45.6195 30.4721 45.5951 30.3278 45.6068C30.1834 45.6184 30.0442 45.6657 29.9226 45.7444C28.9429 46.3762 27.7878 46.7441 26.5405 46.7441C25.9639 46.7441 25.3949 46.6355 24.8162 46.4673C24.6329 46.4139 24.4371 46.4218 24.2588 46.49C24.0804 46.5582 23.9293 46.6829 23.8284 46.845C23.0803 48.0512 21.7763 48.853 20.2668 48.853C18.1752 48.853 16.4789 47.3178 16.1465 45.3018L16.4507 45.148L16.5891 44.3772L16.0542 43.8047L15.75 43.75L15.0493 44.1021L14.9895 44.4336C14.6167 44.5369 14.2624 44.6011 13.9077 44.6011C11.5734 44.6011 9.69336 42.7116 9.69336 40.3525C9.69336 38.2115 11.2538 36.4773 13.2822 36.1707C13.4965 36.1383 13.6912 36.0276 13.8285 35.8599C13.9658 35.6923 14.0361 35.4796 14.0256 35.2632C14.018 35.1039 14.012 35.0665 14.012 35.147C14.012 33.698 14.6052 32.413 15.5518 31.4641L15.75 31.5L16.4507 31.148L16.5891 30.3772L16.0542 29.8047L15.75 29.75L15.5415 29.8542C15.3569 29.7603 15.145 29.7349 14.9434 29.7825C14.6216 29.8584 14.3092 29.9038 13.9932 29.9038C11.6609 29.9038 9.78223 28.0143 9.78223 25.6553C9.78223 23.474 11.4028 21.7164 13.4924 21.4631C13.6165 21.448 13.7359 21.4064 13.8425 21.3413C13.9492 21.2761 14.0407 21.1889 14.1108 21.0854C14.1809 20.9819 14.228 20.8646 14.249 20.7414C14.27 20.6182 14.2643 20.4919 14.2324 20.3711C14.1316 19.9883 14.0684 19.63 14.0684 19.2739C14.0684 16.9161 15.9499 15.0271 18.281 15.0271C19.3293 15.0271 20.2656 15.4208 21.0137 16.0713C21.1459 16.1858 21.3093 16.2581 21.483 16.2788C21.6566 16.2996 21.8325 16.2678 21.988 16.1876C22.1434 16.1074 22.2712 15.9825 22.3549 15.8289C22.4387 15.6754 22.4745 15.5003 22.4578 15.3262C22.4369 15.1125 22.4167 14.9964 22.4167 14.9553C22.4167 12.5975 24.2983 10.7068 26.6294 10.7068C27.1003 10.7068 27.5566 10.8042 28.0171 10.9666C28.1999 11.031 28.399 11.0329 28.583 10.972C28.7671 10.911 28.9257 10.7907 29.0339 10.6299C29.9056 9.33423 31.3668 8.48682 33.0364 8.48682ZM29.6355 14.2837L28.9348 14.6357L28.7964 15.4065L29.333 15.979L29.6355 16.0337L30.3362 15.6834L30.4746 14.9109L29.9397 14.3384L29.6355 14.2837ZM33.0347 14.3691L32.334 14.7195L32.1956 15.4919L32.7322 16.0645L33.0347 16.1191L33.7354 15.7671L33.8738 14.9963L33.3389 14.4238L33.0347 14.3691ZM27.125 16.625L26.4243 16.9771L26.2859 17.7478L26.8208 18.3203L27.125 18.375L27.8257 18.023L27.9641 17.2522L27.4292 16.6797L27.125 16.625ZM35.5281 16.7378L34.8274 17.0881L34.689 17.8606L35.2239 18.4331L35.5281 18.4878L36.2288 18.1357L36.3672 17.365L35.8306 16.7908L35.5281 16.7378ZM47.925 21.7759L47.2244 22.1262L47.0859 22.8987L47.6208 23.4712L47.925 23.5259L48.6257 23.1738L48.7642 22.4031L48.2292 21.8289L47.925 21.7759ZM44.6438 22.9124L43.9431 23.2627L43.8047 24.0352L44.3413 24.6077L44.6438 24.6624L45.3462 24.3103L45.4829 23.5396L44.948 22.9653L44.6438 22.9124ZM34.8086 24.7376L34.1079 25.0879L33.9695 25.8604L34.5044 26.4329L34.8086 26.4876L35.5093 26.1355L35.6477 25.3647L35.1128 24.7905L34.8086 24.7376ZM38.1667 25.0879L37.4661 25.4399L37.3276 26.2124L37.8625 26.7849L38.1667 26.8379L38.8674 26.4876L39.0059 25.7151L38.4709 25.1426L38.1667 25.0879ZM42.0239 25.2024L41.3215 25.5544L41.1848 26.3252L41.7197 26.8977L42.0239 26.9524L42.7246 26.6021L42.863 25.8296L42.3264 25.2571L42.0239 25.2024ZM32.375 27.125L31.6743 27.4771L31.5359 28.2478L32.0708 28.8203L32.375 28.875L33.0757 28.523L33.2141 27.7522L32.6792 27.1797L32.375 27.125ZM40.1953 27.8308L39.4946 28.1812L39.3562 28.9536L39.8928 29.5261L40.1953 29.5808L40.896 29.2288L41.0344 28.4563L40.4995 27.8838L40.1953 27.8308ZM19.0945 28.834L18.3938 29.186L18.2554 29.9585L18.7903 30.531L19.0945 30.584L19.7952 30.2336L19.9336 29.4612L19.397 28.8887L19.0945 28.834ZM22.4697 29.603L21.7673 29.9551L21.6306 30.7275L22.1655 31.3001L22.4697 31.353L23.1704 31.0027L23.3088 30.2302L22.7722 29.6577L22.4697 29.603ZM52.095 35.082L51.3943 35.4341L51.2559 36.2048L51.7908 36.7773L52.095 36.832L52.7957 36.4817L52.9341 35.7092L52.3992 35.1367L52.095 35.082ZM48.6274 35.2341L47.9268 35.5862L47.7883 36.3586L48.325 36.9312L48.6274 36.9841L49.3298 36.6338L49.4666 35.8613L48.9316 35.2888L48.6274 35.2341ZM45.5 36.75L44.7993 37.1021L44.6609 37.8728L45.1958 38.4453L45.5 38.5L46.2007 38.148L46.3391 37.3772L45.8042 36.8047L45.5 36.75ZM20.8855 39.4707L20.1831 39.821L20.0464 40.5935L20.5813 41.166L20.8855 41.2207L21.5862 40.8687L21.7246 40.0979L21.188 39.5254L20.8855 39.4707ZM17.7444 40.9199L17.042 41.272L16.9053 42.0427L17.4402 42.6152L17.7444 42.6699L18.4451 42.3196L18.5835 41.5471L18.0469 40.9746L17.7444 40.9199Z" fill="#E4B564"/>
</svg>

<svg width="70" height="70" fill="none" xmlns="http://www.w3.org/2000/svg"><path d="M33.036 6.737c-2.03 0-3.768 1.02-4.976 2.481-.458-.123-.912-.261-1.43-.261-2.936 0-5.275 2.195-5.763 5.007-.789-.398-1.64-.687-2.586-.687-3.285 0-5.963 2.699-5.963 5.997 0 .262.07.48.105.721-2.507.707-4.39 2.923-4.39 5.66 0 3.096 2.385 5.579 5.391 5.883-.584.93-.97 1.964-1.056 3.125-2.526.696-4.425 2.937-4.425 5.69 0 3.298 2.678 5.998 5.965 5.998.27 0 .495-.075.745-.113.718 2.49 2.906 4.365 5.614 4.365 1.893 0 3.485-.99 4.573-2.376.543.13 1.09.267 1.7.267 1.454 0 2.798-.434 3.974-1.114.297.105.6.201.91.278-.007 2.737-.332 4.65-.806 5.9-.516 1.362-1.152 1.984-1.76 2.34-.761.444-1.849.518-3.847 1.606a16.537 16.537 0 00-4.26 3.346.874.874 0 101.288 1.184 14.807 14.807 0 013.81-2.994c1.777-.968 2.695-.932 3.89-1.63.956-.558 1.885-1.571 2.515-3.232.57-1.507.904-3.59.917-6.42.985-.12 1.881-.494 2.677-1.009.56.524 1.216.95 1.956 1.185-.302 2.487-.24 4.354.098 5.745.374 1.546 1.098 2.554 1.887 3.152 1.39 1.054 2.647.953 4.43 2.356a10.33 10.33 0 012.312 2.58.875.875 0 101.478-.94 12.038 12.038 0 00-2.707-3.015c-2.103-1.656-3.628-1.749-4.456-2.376-.469-.355-.945-.936-1.244-2.169-.27-1.116-.346-2.801-.056-5.17 1.352-.162 2.467-.96 3.249-2.013.71.226 1.431.44 2.216.44 1.384 0 2.655-.423 3.765-1.077.033.005.08.007.121.012 1.029 1.796 2.91 3.044 5.116 3.044 3.284 0 5.962-2.7 5.962-5.999 0-1.85-.92-3.429-2.237-4.53a8.53 8.53 0 00.02-.214c2.463-.74 4.297-2.954 4.297-5.66 0-2.845-2.025-5.147-4.681-5.75a5.865 5.865 0 00-4.474-4.402c.409-.803.707-1.67.707-2.638 0-3.299-2.677-5.999-5.962-5.999-1.188 0-2.232.441-3.158 1.044-.986-1.933-2.914-3.303-5.221-3.303-.067 0-.1.012-.161.015-.937-2.5-3.257-4.33-6.069-4.33zm0 1.75c2.276 0 4.16 1.585 4.678 3.717a.875.875 0 00.965.661c.255-.034.446-.063.587-.063 1.918 0 3.507 1.293 4.023 3.064a.875.875 0 001.447.385 4.154 4.154 0 012.909-1.19c2.332 0 4.212 1.89 4.212 4.249a4.2 4.2 0 01-1.02 2.734.874.874 0 00.708 1.44c.183-.01.225-.018.126-.018 2.14 0 3.874 1.602 4.151 3.686a.875.875 0 00.764.754 4.208 4.208 0 013.719 4.194 4.227 4.227 0 01-3.509 4.177.875.875 0 00-.692.623l-.471-.502-.303-.055-.7.352-.139.773.535.572.304.053.675-.338c-.012.104-.013.228-.03.323a.875.875 0 00.37.89 4.246 4.246 0 011.88 3.536c0 2.358-1.882 4.249-4.212 4.249-1.714 0-3.175-1.034-3.835-2.514a.875.875 0 00-.812-.52c-.222.003-.272.019-.166.019-.064 0-.219-.033-.496-.055a.875.875 0 00-.548.14 5.689 5.689 0 01-5.313.522.876.876 0 00-1.105.395c-.526.98-1.522 1.642-2.696 1.642-.022 0-.043-.003-.065-.004a.875.875 0 00-.304-.02 3.058 3.058 0 01-2.053-1.188.873.873 0 00-1.246-.142c-.786.644-1.753 1.034-2.825 1.034-.019 0-.037-.003-.056-.003a.875.875 0 00-.285-.015 4.46 4.46 0 01-1.458-.366.875.875 0 00-.827.066c-.98.632-2.135 1-3.382 1-.577 0-1.146-.108-1.725-.277a.875.875 0 00-.988.378c-.748 1.206-2.052 2.008-3.561 2.008-2.092 0-3.788-1.535-4.12-3.551l.304-.154.138-.77-.535-.573-.304-.055-.7.352-.06.332a4.039 4.039 0 01-1.082.167c-2.335 0-4.215-1.89-4.215-4.248a4.215 4.215 0 013.59-4.182.875.875 0 00.743-.908c-.008-.16-.014-.197-.014-.116a5.18 5.18 0 011.54-3.683l.198.036.7-.352.14-.77-.536-.573-.304-.055-.209.104a.875.875 0 00-.598-.072 4.116 4.116 0 01-.95.122c-2.332 0-4.21-1.89-4.21-4.249a4.208 4.208 0 013.71-4.192.875.875 0 00.74-1.092 4.3 4.3 0 01-.165-1.097c0-2.358 1.882-4.247 4.213-4.247 1.048 0 1.985.394 2.733 1.044a.875.875 0 001.444-.745c-.021-.213-.041-.33-.041-.37 0-2.358 1.881-4.25 4.212-4.25.471 0 .928.098 1.388.26a.875.875 0 001.017-.336 4.808 4.808 0 014.002-2.143zm-3.4 5.797l-.701.352-.139.77.537.573.303.055.7-.35.139-.773-.535-.573-.305-.054zm3.399.085l-.701.35-.138.773.536.572.303.055.7-.352.139-.77-.535-.573-.304-.055zm-5.91 2.256l-.7.352-.14.77.536.573.304.055.7-.352.14-.77-.536-.573-.304-.055zm8.403.113l-.7.35-.139.773.535.572.304.055.7-.352.14-.771-.537-.574-.303-.053zm12.397 5.038l-.7.35-.14.773.536.572.304.055.7-.352.14-.77-.536-.575-.304-.053zm-3.281 1.136l-.7.35-.14.773.537.573.303.054.702-.352.137-.77-.535-.575-.304-.053zm-9.835 1.826l-.701.35-.139.772.535.573.305.055.7-.352.139-.771-.535-.574-.304-.053zm3.358.35l-.7.352-.14.772.535.573.305.053.7-.35.139-.773-.535-.572-.304-.055zm3.857.114l-.703.352-.136.771.535.573.304.054.7-.35.139-.772-.537-.573-.302-.055zm-9.649 1.923l-.7.352-.14.77.536.573.304.055.7-.352.14-.77-.536-.573-.304-.055zm7.82.706l-.7.35-.139.773.537.572.302.055.701-.352.138-.773-.535-.572-.304-.053zm-21.1 1.003l-.701.352-.139.773.535.572.305.053.7-.35.139-.773-.537-.572-.302-.055zm3.375.769l-.703.352-.136.773.535.572.304.053.7-.35.139-.773-.537-.572-.302-.055zm29.625 5.479l-.7.352-.14.77.536.573.304.055.7-.35.14-.773-.536-.572-.304-.055zm-3.468.152l-.7.352-.139.773.537.572.302.053.703-.35.137-.773-.535-.572-.305-.055zM45.5 36.75l-.7.352-.14.77.536.573.304.055.7-.352.14-.77-.536-.573-.304-.055zm-24.614 2.72l-.703.351-.137.773.535.572.305.055.7-.352.139-.771-.537-.573-.302-.054zm-3.142 1.45l-.702.352-.137.77.535.573.304.055.701-.35.139-.773-.537-.572-.303-.055z" fill="#E4B564"/></svg>
